X:1
T:[ID 1-52]
T:[ID 1-52]
T:Bezeichnung standardisiert: Menuett Men:
T:Urheber unbekannt Datum in der hier transkribierten schriftlichen Quelle: vermutlich vor 1767
C:Urheber unbekannt
C:Datum in der hier transkribierten schriftlichen Quelle: vermutlich vor 1767
%%score 1 2
L:1/8
M:3/4
K:A
V:1 treble nm="1mo"
V:2 treble 
V:1
 ag | a2 e2 ef | e4 d2 | cd e2 G2 | A4 a2 | gabgaf | gabgaf | gf e2 ^d2 | e4 :: e^d | e2 B2 Bc | %11
 B4 d2 | cdeABG | A4 B2 | cdecdB | cdecdB | cB A2 G2 | A4 :| %18
V:2
 !fermata!fe | f2 c2 cd | c4 B2 | AB c2 E2 | C4 f2 | efgefd | efgefd | ec B2 A2 | G4 :: GF | %10
 G2 G2 GA | G4 B2 | ABcFGE | C4 G2 | ABcABG | ABcABG | AG F2 E2 | C4 :| %18

